X:1
T:Til konsul Axel Heiberg
T:Ved Graven
T:Sigurd Lie
C:Sigurd Lie
Z:Andres Aas
%%score [ 1 2 3 4 ]
L:1/8
Q:1/4=54
M:3/4
K:Ab
V:1 treble-8 nm="T1"
V:2 treble-8 nm="T2"
V:3 bass nm="Baryton"
V:4 bass nm="Bass"
V:1
"^Langsomt"!p! c4 c2 |[M:2/4] B!<(! A d!<)! c |[M:3/4] c4 B2 |!<(! (B2 f2)!<)! e2 | %4
w: Be- dre|kan jeg ik- ke|fa- re|end _ at|
 e c!>(! A2 B2!>)! | c4 z2 |!p! c4 c2 |[M:2/4]!<(! B A!<)! d c |[M:3/4]!>(! c4 B2!>)! | %9
w: fa- re til min|Gud;|be- dre|kan jeg ik- ke|sva- re,|
!mf! B4 (c=d) |!<(! (e2 c2)!<)! f2 | e4!>(! =d2 | e4!>)! z2 |!p! B4 B2 | e3 (.e .d .c) | B4 z2 | %16
w: naar jeg _|faar _ ved|dø- den|bud;|end at|jeg er vel be-|red|
!<(! (c2 d2) e2!<)! | f4 B2 | d4 G2 | A4 z2 |] %20
w: og _ vil|gjer- ne|føl- ge|med.|
V:2
!p! A4 A2 |[M:2/4] G!<(! A G!<)! A |[M:3/4] A4 G2 |!<(! (B2 d2)!<)! B2 | A A!>(! A2 G2!>)! | %5
w: Be- dre|kan jeg ik- ke|fa- re|end _ at|fa- re til min|
 G4 z2 |!p! A4 A2 |[M:2/4]!<(! G A!<)! G A |[M:3/4]!>(! A4 G2!>)! |!mf! (F2 A2) A2 | %10
w: Gud;|be- dre|kan jeg ik- ke|sva- re,|naar _ jeg|
!<(! (G2 A2)!<)! c2 | B4!>(! B2 | B4!>)! z2 |!p! G4 G2 | A3 (.A .G .A) | G4 z2 |!<(! A4 A2!<)! | %17
w: faar _ ved|dø- den|bud;|end at|jeg er vel be-|red|og vil|
 A4 A2 | (A2 GF) E2 | E4 z2 |] %20
w: gjer- ne|føl- * * ge|med.|
V:3
!p! E,4 E,2 |[M:2/4] E,!<(! E, E,!<)! E, |[M:3/4] E,4 E,2 |!<(! (E,2 G,2)!<)! G,2 | %4
w: Be- dre|kan jeg ik- ke|fa- re|end _ at|
 A, E,!>(! F,2 F,2!>)! | =E,4 z2 |!p! _E,4 E,2 |[M:2/4]!<(! E, E,!<)! E, E, | %8
w: fa- re til min|Gud;|be- dre|kan jeg ik- ke|
[M:3/4]!>(! E,4 E,2!>)! |!mf! F,4 F,2 |!<(! E,4!<)! A,2 | G,4!>(! F,2 | G,4!>)! z2 |!p! E,4 E,2 | %14
w: sva- re,|naar jeg|faar ved|dø- den|bud;|end at|
 E,3 (.E, .E, .E,) | E,4 z2 |!<(! E,4 _G,2!<)! | F,4 F,2 | B,4 (E,D,) | C,4 z2 |] %20
w: jeg er vel be-|red|og vil|gjer- ne|føl- ge *|med.|
V:4
!p! A,,4 A,,2 |[M:2/4] D,!<(! C, B,,!<)! A,, |[M:3/4] E,4 E,2 |!<(! D,4!<)! D,2 | %4
w: Be- dre|kan jeg ik- ke|fa- re|end at|
 C, C,!>(! D,2 D,2!>)! | C,4 z2 |!p! A,,4 A,,2 |[M:2/4]!<(! D, C,!<)! B,, A,, | %8
w: fa- re til min|Gud;|be- dre|kan jeg ik- ke|
[M:3/4]!>(! E,4 E,2!>)! |!mf! =D,4 (C,=B,,) |!<(! (C,2 A,,2)!<)! A,,2 | B,,4!>(! B,,2 | %12
w: sva- re,|naar jeg _|faar _ ved|dø- den|
 E,4!>)! z2 |!p! E,4 D,2 | C,3 (.C, .B,, .A,,) | E,2 D,2 B,,2 |!<(! A,,2 B,,2 C,2!<)! | D,4 D,2 | %18
w: bud;|end at|jeg er vel be-|red og vil|gjer- ne, vil|gjer- ne|
"_Bedre kan jeg ei forfremmes\nend at dø en salig død;\nbedre kan jeg ikke gjemmes\nend i Herrens haand og skjød\nThi Guds bolig haver fred\ni al overflødighed." E,4 E,2 | %19
w: føl- ge|
 A,,4 z2 |] %20
w: med.|

